ix/back-square_bulk.svg

<svg viewBox="0 0 24 24" fill="none" xmlns="http://www.w3.org/2000/svg" height="1em" width="1em">
  <path opacity="0.4" d="M16.19 2H7.82C4.17 2 2 4.17 2 7.81V16.18C2 19.82 4.17 21.99 7.81 21.99H16.18C19.82 21.99 21.99 19.82 21.99 16.18V7.81C22 4.17 19.83 2 16.19 2Z" fill="#292D32"/>
  <path d="M13.9195 8.48006H8.76945L9.09945 8.15006C9.38945 7.86006 9.38945 7.38006 9.09945 7.09006C8.80945 6.80006 8.32945 6.80006 8.03945 7.09006L6.46945 8.66006C6.17945 8.95006 6.17945 9.43006 6.46945 9.72006L8.03945 11.2901C8.18945 11.4401 8.37945 11.5101 8.56945 11.5101C8.75945 11.5101 8.94945 11.4401 9.09945 11.2901C9.38945 11.0001 9.38945 10.5201 9.09945 10.2301L8.83945 9.97006H13.9195C15.1995 9.97006 16.2495 11.0101 16.2495 12.3001C16.2495 13.5901 15.2094 14.6301 13.9195 14.6301H8.99945C8.58945 14.6301 8.24945 14.9701 8.24945 15.3801C8.24945 15.7901 8.58945 16.1301 8.99945 16.1301H13.9195C16.0295 16.1301 17.7495 14.4101 17.7495 12.3001C17.7495 10.1901 16.0295 8.48006 13.9195 8.48006Z" fill="#292D32"/>
</svg>

<svg viewBox="0 0 24 24" fill="none" xmlns="http://www.w3.org/2000/svg" height="1em" width="1em">
  <path opacity=".4" d="M16.19 2H7.82C4.17 2 2 4.17 2 7.81v8.37c0 3.64 2.17 5.81 5.81 5.81h8.37c3.64 0 5.81-2.17 5.81-5.81V7.81C22 4.17 19.83 2 16.19 2Z" fill="#292D32"/>
  <path d="M13.92 8.48H8.77l.33-.33c.29-.29.29-.77 0-1.06a.754.754 0 0 0-1.06 0L6.47 8.66c-.29.29-.29.77 0 1.06l1.57 1.57c.15.15.34.22.53.22s.38-.07.53-.22c.29-.29.29-.77 0-1.06l-.26-.26h5.08c1.28 0 2.33 1.04 2.33 2.33s-1.04 2.33-2.33 2.33H9c-.41 0-.75.34-.75.75s.34.75.75.75h4.92c2.11 0 3.83-1.72 3.83-3.83 0-2.11-1.72-3.82-3.83-3.82Z" fill="#292D32"/>
</svg>
